dist/img/svg/Orthogonal.svg

<svg width="24" height="24" viewBox="0 0 24 24" fill="none" xmlns="http://www.w3.org/2000/svg">
<path d="M3.99024 2.99023C3.84721 2.99027 3.70586 3.02097 3.57571 3.08029C3.44557 3.1396 3.32966 3.22614 3.2358 3.33406C3.14195 3.44198 3.07234 3.56878 3.03166 3.7059C2.99098 3.84301 2.98019 3.98726 3 4.12891V16C3.00005 16.2652 3.10544 16.5195 3.29297 16.707L7.20508 20.6191C7.31471 20.7628 7.46123 20.8741 7.62906 20.9412C7.79689 21.0082 7.97975 21.0286 8.15821 21H20C20.2652 21 20.5196 20.8946 20.7071 20.7071C20.8946 20.5195 21 20.2652 21 20V8.16797C21.0305 7.98866 21.0115 7.80443 20.9451 7.63511C20.8787 7.46579 20.7673 7.31779 20.6231 7.20703C20.6211 7.20572 20.6191 7.20442 20.6172 7.20312L16.707 3.29297C16.5195 3.10543 16.2652 3.00005 16 3H4.11719C4.07512 2.99405 4.03272 2.99079 3.99024 2.99023ZM6.41407 5H15.5859L17.5859 7H8.41407L6.41407 5ZM5 6.41406L7 8.41406V17.5859L5 15.5859V6.41406ZM9 9H19V19H9V9Z" fill="#ACADAC"/>
</svg>

<svg width="24" height="24" viewBox="0 0 24 24" fill="none" xmlns="http://www.w3.org/2000/svg"><path d="M3.99 2.99A1 1 0 003 4.13V16a1 1 0 00.293.707l3.912 3.912a1 1 0 00.953.381H20a1 1 0 001-1V8.168a1 1 0 00-.377-.961l-.006-.004-3.91-3.91A1 1 0 0016 3H4.117a1 1 0 00-.127-.01zM6.414 5h9.172l2 2H8.414l-2-2zM5 6.414l2 2v9.172l-2-2V6.414zM9 9h10v10H9V9z" fill="#ACADAC"/></svg>
